X: 23
T: Five Shetland Reels
M: C|
L: 1/8
K: G
P: Jack Broke da Prison Door
"G""G"G2BG "G/F#""G/B"BdBG|"G/E""C"cBAB "G/D""D"dBAB|"C""G"G2BG "G/B""Em"BdBG|[1"Am"ABAG "D"E2DE:|[2"Am7"ABAG "D7sus4"E2DG|
|:"G"g2gd "Em"edBG|"G"g2gd "Am"eaaf|"G"g2gd "Em"edBG|[1"Am"ABAG "D"E2DG:|[2"Am"ABAG "D"E2D2||
K: D
P: Donald Blue
"D"dBAF AFAB|dBAF "A7sus4"E2D2|"D"dBAF AFA2|"Bm"BB2A "G"B2d2:|
"D"ABde fafd|fafd "Em"edB2|"D/F#"ABde "D"fafd|"Bm"BB2A "G"B2d2:|
K: Ador
P: Sleep Soond in da Mornin
"Am"Aa2^g a2ef|"G"gedB "Em"GABG|"Am"Aa2^g a2ef|[1"Em"gedB "Am"A2BG:|[2"Em"gedB "Am"A2AB|
"Am"cAeA cAeA|"G"BcdB "Em"G3B|"Am"cAeA cAeA|"Em"BAGB "Am"A2AB|
"Am"cAeA cAeA|"G"BcdB "Em"G2GB|"Am"ABcd "Em"efga|"G"gedB "Am"A2 BG||
K: D
P: Lasses Trust in Providence
"D"d2de fdef|"E7/B"d2fd "A7sus4"edBA|"D"d2de fdef|[1"Em7"dBAF "A"E2A2:|[2"Em7"dBAF "A"E2FG|
|:"D"AA2B ADFA|"G"d2d2 BABd|"D"AA2B ADFA|[1"Em"GF"A"EC "D"D3F:|[2"Em"GF"A"EC "D"D2||
K: A
P: Da Boannie Isle o Whalsay
e2-|"A"edcA "Em/B"B2ed|"A"cAAc "Em"B=GGe|"A"edcA "Em/B"B2ed|"A"cA"E"BG "A"A2:|
AB|"A"cde=g "D"fded|"A"cAAc "G"B=GGB|"A"cde=g "D"fded|"A"cA"E"BG "A"A2AB|
"A"cde=g "D"fded|"A"cAAc "G"B=GGB|"A"cdef "Em"=gage|"G"dB=GB "A"A2|]
